svg/fluentui-system-icons/ic_fluent_notebook_subsection_20_filled.svg

<svg width="20" height="20" viewBox="0 0 20 20" fill="none" xmlns="http://www.w3.org/2000/svg">
<path d="M4 5.5C4 3.567 5.567 2 7.5 2H10C10.8179 2 11.5441 2.39278 12.0002 3H7.5C6.11929 3 5 4.11929 5 5.5V15.0002C4.39278 14.5441 4 13.8179 4 13V5.5ZM13.5 2L13.4322 2.00548C13.1881 2.04521 13 2.29624 13 2.59999L13 3.59918L13 3.60022V4H7.5C6.67157 4 6 4.67157 6 5.5V15.5C6 16.3284 6.67157 17 7.5 17H13V17.4L13.0046 17.4814C13.0377 17.7743 13.2469 18 13.5 18C13.7761 18 14 17.7314 14 17.4V2.59999L13.9954 2.51858C13.9623 2.22572 13.7531 2 13.5 2Z" fill="#212121"/>
</svg>

<svg xmlns="http://www.w3.org/2000/svg" width="20" height="20"><path d="M4 5.5A3.5 3.5 0 0 1 7.5 2H10c.818 0 1.544.393 2 1H7.5A2.5 2.5 0 0 0 5 5.5V15a2.496 2.496 0 0 1-1-2V5.5ZM13.5 2l-.068.005c-.244.04-.432.291-.432.595V4H7.5A1.5 1.5 0 0 0 6 5.5v10A1.5 1.5 0 0 0 7.5 17H13v.4l.005.081c.033.293.242.519.495.519.276 0 .5-.269.5-.6V2.6l-.005-.081C13.962 2.226 13.753 2 13.5 2Z"/></svg>
